widgets/LayerList/images/operation_hover.svg

<?xml version="1.0" encoding="UTF-8" standalone="no"?>
<svg width="16px" height="15px" viewBox="0 0 16 15" version="1.1" xmlns="http://www.w3.org/2000/svg" xmlns:xlink="http://www.w3.org/1999/xlink" xmlns:sketch="http://www.bohemiancoding.com/sketch/ns">
    <!-- Generator: Sketch 3.5.1 (25234) - http://www.bohemiancoding.com/sketch -->
    <title>setting_all_hover</title>
    <desc>Created with Sketch.</desc>
    <defs></defs>
    <g id="LayerList" stroke="none" stroke-width="1" fill="none" fill-rule="evenodd" sketch:type="MSPage">
        <g id="LayerList_option" sketch:type="MSArtboardGroup" transform="translate(-1394.000000, -181.000000)" fill="#000000">
            <g id="setting_all_hover" sketch:type="MSLayerGroup" transform="translate(1394.000000, 181.000000)">
                <path d="M4,15 L4,13 L0,13 L0,15 L4,15 L4,15 Z M0,6 L0,8 L11,8 L11,6 L0,6 L0,6 L0,6 Z M0,2 L16,2 L16,0 L0,0 L0,2 L0,2 Z M5.41552734,9.52844238 L4.14351828,10.7756297 L8.31795922,15 L15.996826,8.15478516 L14.7268544,6.90591144 L8.47288449,12.619164 L5.41552734,9.52844238 Z" id="Shape" sketch:type="MSShapeGroup"></path>
            </g>
        </g>
    </g>
</svg>

<svg width="16" height="15" xmlns="http://www.w3.org/2000/svg"><path d="M4 15v-2H0v2h4zM0 6v2h11V6H0zm0-4h16V0H0v2zm5.416 7.528l-1.272 1.248L8.318 15l7.679-6.845-1.27-1.25-6.254 5.714-3.057-3.09z" fill-rule="evenodd"/></svg>
